Obsidian/actions/22s/view-form.svg

<svg height="22" viewBox="0 0 22 22" width="22" xmlns="http://www.w3.org/2000/svg"><path d="m2 1s-.0762006.0040975-.1816406.0234375c-.20412.03015-.3586863.103495-.4726563.203125-.0221.01694-.0435531.0350675-.0644531.0546875-.0196.02097-.0376875.0423831-.0546875.0644531-.0996.11397-.172975.2685363-.203125.4726563-.02.106-.0195313.1816406-.0195313.1816406v12c0 1 1 1 1 1h11.9999998s1 0 1-1v-12s-.004037-.0762306-.023437-.1816406c-.0301-.20412-.103505-.3586763-.203125-.4726563-.0169-.02207-.035088-.0434831-.054688-.0644531-.021-.01962-.042653-.0377475-.064453-.0546875-.11397-.09963-.268536-.172975-.472656-.203125-.1-.019-.179688-.0234375-.179688-.0234375h-11.9999996zm2 4h3v6h-3zm4 1h4v1h-4zm0 3h4v1h-4z" fill="#bebebe" transform="translate(3 3)"/></svg>

<svg xmlns="http://www.w3.org/2000/svg" width="22" height="22" viewBox="0 0 22 22">
 <defs>
  <style id="current-color-scheme" type="text/css">
   .ColorScheme-Text { color:#bebebe; } .ColorScheme-Highlight { color:#4285f4; }
  </style>
 </defs>
 <path style="fill:currentColor" class="ColorScheme-Text" d="M 2 1 C 2 1 1.9237994 1.0040975 1.8183594 1.0234375 C 1.6142394 1.0535875 1.4596731 1.1269325 1.3457031 1.2265625 C 1.3236031 1.2435025 1.30215 1.26163 1.28125 1.28125 C 1.26165 1.30222 1.2435625 1.3236331 1.2265625 1.3457031 C 1.1269625 1.4596731 1.0535875 1.6142394 1.0234375 1.8183594 C 1.0034375 1.9243594 1.0039062 2 1.0039062 2 L 1.0039062 14 C 1.0039062 15 2.0039062 15 2.0039062 15 L 14.003906 15 C 14.003906 15 15.003906 15 15.003906 14 L 15.003906 2 C 15.003906 2 14.999869 1.9237694 14.980469 1.8183594 C 14.950369 1.6142394 14.876964 1.4596831 14.777344 1.3457031 C 14.760444 1.3236331 14.742256 1.30222 14.722656 1.28125 C 14.701656 1.26163 14.680003 1.2435025 14.658203 1.2265625 C 14.544233 1.1269325 14.389667 1.0535875 14.185547 1.0234375 C 14.085547 1.0044375 14.005859 1 14.005859 1 L 2.0058594 1 L 2 1 z M 4 5 L 7 5 L 7 11 L 4 11 L 4 5 z M 8 6 L 12 6 L 12 7 L 8 7 L 8 6 z M 8 9 L 12 9 L 12 10 L 8 10 L 8 9 z" transform="translate(3 3)"/>
</svg>
